build/img/my-comfort-plus-wrong-6.svg

<svg width="175" height="56" viewBox="0 0 175 56" fill="none" xmlns="http://www.w3.org/2000/svg">
<g clip-path="url(#clip0)" filter="url(#filter0_d)">
<path d="M54.8813 2.65654C57.5458 2.61181 60.1929 3.09329 62.6694 4.07314C65.1459 5.05299 67.4026 6.51178 69.3092 8.36514C71.1497 10.1535 72.6226 12.2817 73.6456 14.6307C74.6992 17.0602 75.2302 19.6823 75.2043 22.3283C75.2326 24.9746 74.7015 27.5972 73.6456 30.026C72.6236 32.3841 71.1444 34.5185 69.2928 36.3069C67.4411 38.0954 65.2533 39.5028 62.8546 40.4487C60.3254 41.5065 57.6045 42.0346 54.8613 42.0002H39.7539V2.65654H54.8813ZM59.957 33.6262C61.4075 33.0391 62.7156 32.1508 63.7938 31.0205C64.8602 29.8624 65.6945 28.5122 66.2518 27.0424C66.8516 25.5226 67.1502 23.9015 67.131 22.2687C67.1504 20.6229 66.8519 18.9888 66.2518 17.4551C65.6876 16.0185 64.8534 14.7021 63.7938 13.5765C62.7022 12.4621 61.3976 11.5761 59.957 10.9708C58.3472 10.3082 56.6233 9.96364 54.8813 9.95639H47.8272V34.6207H54.8813C56.6257 34.6608 58.358 34.3214 59.957 33.6262Z" fill="#231F20"/>
<path d="M19.99 2C17.6186 2 15.3004 2.69994 13.3287 4.0113C11.357 5.32267 9.82018 7.18656 8.91269 9.36728C8.0052 11.548 7.76775 13.9476 8.23039 16.2626C8.69303 18.5777 9.83496 20.7042 11.5118 22.3732C13.1886 24.0423 15.325 25.1789 17.6509 25.6394C19.9767 26.0999 22.3875 25.8636 24.5784 24.9603C26.7692 24.057 28.6418 22.5273 29.9593 20.5647C31.2768 18.6021 31.98 16.2948 31.98 13.9344C31.98 10.7692 30.7167 7.73362 28.4682 5.49549C26.2196 3.25737 23.1699 2 19.99 2V2ZM19.99 18.9468C19.0168 18.931 18.0698 18.6304 17.2672 18.0824C16.4646 17.5344 15.8418 16.7632 15.4767 15.8652C15.1115 14.9671 15.0201 13.982 15.2139 13.0326C15.4077 12.0832 15.878 11.2116 16.5663 10.5265C17.2545 9.84147 18.1301 9.37331 19.084 9.18044C20.0378 8.98758 21.0276 9.07855 21.9298 9.442C22.832 9.80545 23.6068 10.4253 24.1573 11.2242C24.7079 12.0231 25.0099 12.9657 25.0258 13.9344C25.0366 14.5956 24.9137 15.2522 24.6645 15.8652C24.4152 16.4782 24.0447 17.035 23.5749 17.5026C23.1051 17.9702 22.5457 18.3391 21.9298 18.5872C21.314 18.8352 20.6543 18.9575 19.99 18.9468Z" fill="#231F20"/>
<path d="M90.5509 6.53504V16.1621H88.9922V5.1228H91.61L94.4476 14.3322L97.2853 5.1228H99.9031V16.1621H98.3244V6.53504L95.267 16.1621H93.6083L90.5509 6.53504Z" fill="#231F20"/>
<path d="M102.141 10.6324C102.063 9.90529 102.139 9.16984 102.365 8.4739C102.591 7.77796 102.961 7.13712 103.452 6.59306C103.943 6.049 104.544 5.61389 105.215 5.31604C105.886 5.01819 106.612 4.86426 107.347 4.86426C108.082 4.86426 108.808 5.01819 109.479 5.31604C110.15 5.61389 110.751 6.049 111.242 6.59306C111.733 7.13712 112.103 7.77796 112.329 8.4739C112.555 9.16984 112.631 9.90529 112.553 10.6324C112.631 11.3596 112.555 12.0951 112.329 12.791C112.103 13.4869 111.733 14.1278 111.242 14.6718C110.751 15.2159 110.15 15.651 109.479 15.9488C108.808 16.2467 108.082 16.4006 107.347 16.4006C106.612 16.4006 105.886 16.2467 105.215 15.9488C104.544 15.651 103.943 15.2159 103.452 14.6718C102.961 14.1278 102.591 13.4869 102.365 12.791C102.139 12.0951 102.063 11.3596 102.141 10.6324ZM110.974 10.6324C110.974 7.78809 109.375 6.23662 107.357 6.23662C105.339 6.23662 103.74 7.78809 103.74 10.6324C103.74 13.4768 105.339 15.068 107.357 15.068C109.375 15.068 110.974 13.4967 110.974 10.6324Z" fill="#231F20"/>
<path d="M116.369 16.1619H114.811V5.12257H116.369V13.9341L122.364 5.16235H123.903V16.1619H122.344V7.3901L116.369 16.1619ZM119.387 4.50596C117.628 4.50596 116.769 3.71034 116.609 2.67603H117.788C117.788 3.25285 118.447 3.5711 119.407 3.5711C120.366 3.5711 120.925 3.23296 121.045 2.67603H122.224C122.104 3.71034 121.205 4.50596 119.387 4.50596Z" fill="#231F20"/>
<path d="M90.5509 27.1416V32.1739H88.9922V21.1147H90.5509V25.8089H91.67L95.4069 21.1147H97.2853L93.0089 26.346L97.4452 32.1739H95.5867L91.7099 27.1416H90.5509Z" fill="#231F20"/>
<path d="M97.9245 26.6445C97.846 25.9174 97.9221 25.1819 98.148 24.486C98.3738 23.79 98.7442 23.1492 99.2352 22.6051C99.7262 22.0611 100.327 21.626 100.998 21.3281C101.669 21.0303 102.395 20.8763 103.13 20.8763C103.865 20.8763 104.591 21.0303 105.262 21.3281C105.934 21.626 106.534 22.0611 107.025 22.6051C107.516 23.1492 107.887 23.79 108.112 24.486C108.338 25.1819 108.414 25.9174 108.336 26.6445C108.414 27.3717 108.338 28.1071 108.112 28.8031C107.887 29.499 107.516 30.1399 107.025 30.6839C106.534 31.228 105.934 31.6631 105.262 31.9609C104.591 32.2588 103.865 32.4127 103.13 32.4127C102.395 32.4127 101.669 32.2588 100.998 31.9609C100.327 31.6631 99.7262 31.228 99.2352 30.6839C98.7442 30.1399 98.3738 29.499 98.148 28.8031C97.9221 28.1071 97.846 27.3717 97.9245 26.6445ZM106.737 26.6445C106.737 23.7803 105.158 22.2288 103.14 22.2288C101.122 22.2288 99.5232 23.7803 99.5232 26.6445C99.5232 29.5088 101.102 31.0602 103.14 31.0602C105.178 31.0602 106.737 29.4889 106.737 26.6445Z" fill="#231F20"/>
<path d="M112.072 22.5469V32.1739H110.514V21.1147H113.131L115.969 30.3241L118.787 21.1147H121.405V32.1739H119.846V22.5469L116.788 32.1739H115.13L112.072 22.5469Z" fill="#231F20"/>
<path d="M134.934 26.6447C134.938 27.2783 134.811 27.906 134.56 28.4886C134.31 29.0712 133.942 29.5963 133.479 30.0311C133.016 30.4658 132.468 30.8011 131.869 31.0158C131.27 31.2305 130.633 31.3202 129.998 31.2792V32.5721H128.419V31.2792C127.168 31.2792 125.969 30.7847 125.084 29.9043C124.2 29.024 123.703 27.83 123.703 26.5851C123.703 25.3401 124.2 24.1461 125.084 23.2658C125.969 22.3854 127.168 21.8909 128.419 21.8909V20.5184H129.998V21.8909C130.642 21.855 131.287 21.9522 131.891 22.1763C132.496 22.4005 133.047 22.7467 133.511 23.1931C133.974 23.6396 134.34 24.1768 134.585 24.7708C134.83 25.3648 134.949 26.0028 134.934 26.6447ZM125.062 26.6447C125.048 27.0891 125.126 27.5316 125.289 27.9453C125.452 28.3591 125.698 28.7355 126.012 29.0517C126.326 29.3679 126.702 29.6173 127.115 29.7848C127.529 29.9523 127.973 30.0344 128.419 30.0261V23.1838C127.968 23.1723 127.52 23.2535 127.102 23.4224C126.684 23.5914 126.306 23.8443 125.991 24.1654C125.676 24.4866 125.431 24.869 125.271 25.2887C125.111 25.7085 125.04 26.1566 125.062 26.605V26.6447ZM133.335 26.605C133.354 26.159 133.282 25.7139 133.122 25.2968C132.962 24.8797 132.719 24.4995 132.406 24.1792C132.094 23.859 131.719 23.6056 131.305 23.4344C130.891 23.2632 130.446 23.178 129.998 23.1838V29.9864C130.444 29.9948 130.886 29.9126 131.299 29.7449C131.712 29.5771 132.086 29.3274 132.398 29.0109C132.71 28.6944 132.955 28.3178 133.116 27.9041C133.277 27.4904 133.351 27.0483 133.335 26.605Z" fill="#231F20"/>
<path d="M136.372 26.6445C136.293 25.9174 136.369 25.1819 136.595 24.486C136.821 23.79 137.192 23.1492 137.683 22.6051C138.174 22.0611 138.774 21.626 139.445 21.3281C140.116 21.0303 140.843 20.8763 141.577 20.8763C142.312 20.8763 143.039 21.0303 143.71 21.3281C144.381 21.626 144.981 22.0611 145.472 22.6051C145.963 23.1492 146.334 23.79 146.56 24.486C146.785 25.1819 146.862 25.9174 146.783 26.6445C146.862 27.3717 146.785 28.1071 146.56 28.8031C146.334 29.499 145.963 30.1399 145.472 30.6839C144.981 31.228 144.381 31.6631 143.71 31.9609C143.039 32.2588 142.312 32.4127 141.577 32.4127C140.843 32.4127 140.116 32.2588 139.445 31.9609C138.774 31.6631 138.174 31.228 137.683 30.6839C137.192 30.1399 136.821 29.499 136.595 28.8031C136.369 28.1071 136.293 27.3717 136.372 26.6445ZM145.204 26.6445C145.204 23.7803 143.606 22.2288 141.587 22.2288C139.569 22.2288 137.891 23.8797 137.891 26.6445C137.891 29.4093 139.489 31.0602 141.507 31.0602C143.526 31.0602 145.124 29.4889 145.124 26.6445" fill="#231F20"/>
<path d="M157.136 24.4564C157.136 27.2013 155.238 27.798 152.52 27.798H150.522V32.1739H148.963V21.1147H152.44C155.158 21.1147 157.056 21.7314 157.056 24.4564H157.136ZM150.522 26.4454H152.52C154.139 26.4454 155.417 26.2664 155.417 24.4564C155.417 22.6463 154.139 22.4673 152.52 22.4673H150.522V26.4454Z" fill="#231F20"/>
<path d="M157.355 22.4673V21.1147H166.148V22.4673H162.531V32.1739H160.972V22.4673H157.355Z" fill="#231F20"/>
<path d="M167 37H90V42H167V37Z" fill="url(#paint0_linear)"/>
</g>
<defs>
<filter id="filter0_d" x="0" y="0" width="175" height="56" filterUnits="userSpaceOnUse" color-interpolation-filters="sRGB">
<feFlood flood-opacity="0" result="BackgroundImageFix"/>
<feColorMatrix in="SourceAlpha" type="matrix" values="0 0 0 0 0 0 0 0 0 0 0 0 0 0 0 0 0 0 127 0"/>
<feOffset dy="6"/>
<feGaussianBlur stdDeviation="4"/>
<feColorMatrix type="matrix" values="0 0 0 0 0 0 0 0 0 0 0 0 0 0 0 0 0 0 0.5 0"/>
<feBlend mode="normal" in2="BackgroundImageFix" result="effect1_dropShadow"/>
<feBlend mode="normal" in="SourceGraphic" in2="effect1_dropShadow" result="shape"/>
</filter>
<linearGradient id="paint0_linear" x1="90.2303" y1="39.7081" x2="167.001" y2="39.7081" gradientUnits="userSpaceOnUse">
<stop stop-color="#A0B1FF"/>
<stop offset="1" stop-color="#FFDCD6"/>
</linearGradient>
<clipPath id="clip0">
<rect width="159" height="40" fill="white" transform="translate(8 2)"/>
</clipPath>
</defs>
</svg>

<svg width="175" height="56" viewBox="0 0 175 56" fill="none" xmlns="http://www.w3.org/2000/svg"><g clip-path="url(#clip0)" filter="url(#filter0_d)"><path d="M54.881 2.657a20.247 20.247 0 017.788 1.416 20.173 20.173 0 016.64 4.292 19.71 19.71 0 014.337 6.266 18.881 18.881 0 011.558 7.697 18.801 18.801 0 01-1.558 7.698 19.531 19.531 0 01-4.353 6.28 19.634 19.634 0 01-6.438 4.143A20.066 20.066 0 0154.86 42H39.754V2.657H54.88zm5.076 30.97a11.012 11.012 0 003.837-2.607 12.323 12.323 0 002.458-3.978c.6-1.52.898-3.14.879-4.773.02-1.646-.28-3.28-.88-4.814a12.126 12.126 0 00-2.457-3.878 11.732 11.732 0 00-3.837-2.606 13.483 13.483 0 00-5.076-1.015h-7.054v24.665h7.054c1.745.04 3.477-.3 5.076-.995zM19.99 2c-2.371 0-4.69.7-6.661 2.011a11.947 11.947 0 00-4.416 5.356 11.883 11.883 0 00-.683 6.896 11.917 11.917 0 003.282 6.11 12.007 12.007 0 006.139 3.266c2.326.46 4.736.225 6.927-.679a11.979 11.979 0 005.381-4.395 11.895 11.895 0 00-1.49-15.07A12.019 12.019 0 0019.99 2zm0 16.947a4.972 4.972 0 01-2.723-.865 4.937 4.937 0 01-1.79-2.217 4.91 4.91 0 011.09-5.338 4.977 4.977 0 015.364-1.085 4.951 4.951 0 012.226 1.782 4.918 4.918 0 01-.582 6.279 4.958 4.958 0 01-3.585 1.444zM90.55 6.535v9.627h-1.558V5.122h2.618l2.838 9.21 2.837-9.21h2.618v11.04h-1.579V6.535l-3.057 9.627h-1.659l-3.057-9.627zm11.591 4.097a5.194 5.194 0 011.311-4.039 5.237 5.237 0 013.895-1.729 5.254 5.254 0 013.895 1.73 5.207 5.207 0 011.311 4.038 5.194 5.194 0 01-1.311 4.04 5.235 5.235 0 01-3.895 1.729 5.253 5.253 0 01-3.895-1.73 5.207 5.207 0 01-1.311-4.039zm8.833 0c0-2.844-1.599-4.395-3.617-4.395s-3.617 1.551-3.617 4.395c0 2.845 1.599 4.436 3.617 4.436s3.617-1.571 3.617-4.436zm5.395 5.53h-1.558V5.122h1.558v8.812l5.995-8.772h1.539v11h-1.559V7.39l-5.975 8.772zm3.018-11.656c-1.759 0-2.618-.796-2.778-1.83h1.179c0 .577.659.895 1.619.895.959 0 1.518-.338 1.638-.895h1.179c-.12 1.034-1.019 1.83-2.837 1.83zM90.55 27.142v5.032h-1.558v-11.06h1.559v4.695h1.119l3.737-4.694h1.878l-4.276 5.231 4.436 5.828h-1.858l-3.877-5.032h-1.16zm7.374-.497a5.187 5.187 0 011.311-4.04 5.237 5.237 0 013.895-1.729 5.255 5.255 0 013.895 1.73 5.193 5.193 0 011.311 4.038 5.194 5.194 0 01-1.311 4.04 5.253 5.253 0 01-7.79 0 5.205 5.205 0 01-1.31-4.04zm8.813 0c0-2.865-1.579-4.416-3.597-4.416s-3.617 1.551-3.617 4.416c0 2.864 1.579 4.415 3.617 4.415 2.038 0 3.597-1.571 3.597-4.415zm5.335-4.098v9.627h-1.558v-11.06h2.617l2.838 9.21 2.818-9.21h2.618v11.06h-1.559v-9.627l-3.058 9.627h-1.658l-3.058-9.627zm22.862 4.098a4.61 4.61 0 01-3.065 4.371 4.657 4.657 0 01-1.871.263v1.293h-1.579V31.28a4.728 4.728 0 01-3.335-1.375 4.685 4.685 0 01-1.381-3.319c0-1.245.497-2.439 1.381-3.32a4.728 4.728 0 013.335-1.374v-1.373h1.579v1.373a4.693 4.693 0 013.513 1.302c.463.447.829.984 1.074 1.578a4.63 4.63 0 01.349 1.874zm-9.872 0a3.268 3.268 0 00.95 2.407 3.306 3.306 0 002.407.974v-6.842a3.29 3.29 0 00-2.428.981 3.266 3.266 0 00-.929 2.44v.04zm8.273-.04a3.264 3.264 0 00-.929-2.426 3.296 3.296 0 00-2.408-.995v6.802a3.291 3.291 0 002.4-.975 3.264 3.264 0 00.937-2.406zm3.037.04a5.177 5.177 0 011.311-4.04 5.234 5.234 0 013.894-1.729 5.234 5.234 0 014.983 3.61c.225.696.302 1.431.223 2.159a5.194 5.194 0 01-1.311 4.039 5.231 5.231 0 01-3.895 1.729 5.257 5.257 0 01-3.894-1.73 5.178 5.178 0 01-1.311-4.04zm8.832 0c0-2.865-1.598-4.416-3.617-4.416-2.018 0-3.696 1.65-3.696 4.416 0 2.764 1.598 4.415 3.616 4.415 2.019 0 3.617-1.571 3.617-4.415m12.012-2.189c0 2.745-1.898 3.342-4.616 3.342h-1.998v4.376h-1.559v-11.06h3.477c2.718 0 4.616.617 4.616 3.342h.08zm-6.614 1.99h1.998c1.619 0 2.897-.18 2.897-1.99s-1.278-1.989-2.897-1.989h-1.998v3.978zm6.833-3.979v-1.352h8.793v1.352h-3.617v9.707h-1.559v-9.707h-3.617z" fill="#231F20"/><path d="M167 37H90v5h77v-5z" fill="url(#paint0_linear)"/></g><defs><linearGradient id="paint0_linear" x1="90.23" y1="39.708" x2="167.001" y2="39.708" gradientUnits="userSpaceOnUse"><stop stop-color="#A0B1FF"/><stop offset="1" stop-color="#FFDCD6"/></linearGradient><clipPath id="clip0"><path fill="#fff" transform="translate(8 2)" d="M0 0h159v40H0z"/></clipPath><filter id="filter0_d" x="0" y="0" width="175" height="56" filterUnits="userSpaceOnUse" color-interpolation-filters="sRGB"><feFlood flood-opacity="0" result="BackgroundImageFix"/><feColorMatrix in="SourceAlpha" values="0 0 0 0 0 0 0 0 0 0 0 0 0 0 0 0 0 0 127 0"/><feOffset dy="6"/><feGaussianBlur stdDeviation="4"/><feColorMatrix values="0 0 0 0 0 0 0 0 0 0 0 0 0 0 0 0 0 0 0.5 0"/><feBlend in2="BackgroundImageFix" result="effect1_dropShadow"/><feBlend in="SourceGraphic" in2="effect1_dropShadow" result="shape"/></filter></defs></svg>
